Newaita/actions/22/align-horizontal-left-to-anchor.svg

<svg height="22" viewBox="0 0 22 22" width="22" xmlns="http://www.w3.org/2000/svg"><g fill="#424242"><path d="m10.914062 1.992188c-.25 0-.453124.203124-.453124.453124v17.28125c0 .253907.203124.457032.453124.457032.253907 0 .457032-.203125.457032-.457032v-17.28125c0-.25-.203125-.453124-.457032-.453124zm0 0"/><path d="m20.011719 8.359375c0 1.007813-.8125 1.816406-1.820313 1.816406h-2.726562c-1.007813 0-1.820313-.808593-1.820313-1.816406v-2.730469c0-1.007812.8125-1.820312 1.820313-1.820312h2.726562c1.007813 0 1.820313.8125 1.820313 1.820312zm-1.820313-.457031v-1.816406c0-.253907-.203125-.457032-.453125-.457032h-1.820312c-.253907 0-.453125.203125-.453125.457032v1.816406c0 .253906.199218.457031.453125.457031h1.820312c.25 0 .453125-.203125.453125-.457031zm0 0"/><path d="m20.011719 16.542969c0 1.007812-.8125 1.820312-1.820313 1.820312h-3.636718c-1.007813 0-1.820313-.8125-1.820313-1.820312v-2.726563c0-1.007812.8125-1.820312 1.820313-1.820312h3.636718c1.007813 0 1.820313.8125 1.820313 1.820312zm-1.820313-.453125v-1.820313c0-.25-.203125-.453125-.453125-.453125h-2.730469c-.25 0-.453124.203125-.453124.453125v1.820313c0 .25.203124.453125.453124.453125h2.730469c.25 0 .453125-.203125.453125-.453125zm0 0"/><path d="m7.277344 3.808594c1.007812 0 1.820312.8125 1.820312 1.820312v3.640625c0 1.007813-.8125 1.816407-1.820312 1.816407h-2.730469c-1.007813 0-1.816406-.808594-1.816406-1.816407v-3.640625c0-1.007812.808593-1.820312 1.816406-1.820312zm0 0"/></g></svg>

<?xml version="1.0" encoding="UTF-8"?>
<svg xmlns="http://www.w3.org/2000/svg" xmlns:xlink="http://www.w3.org/1999/xlink" width="22px" height="22px" viewBox="0 0 22 22" version="1.1">
<g id="surface1">
<path style=" stroke:none;fill-rule:nonzero;fill:rgb(25.882354%,25.882354%,25.882354%);fill-opacity:1;" d="M 10.914062 1.992188 C 10.664062 1.992188 10.460938 2.195312 10.460938 2.445312 L 10.460938 19.726562 C 10.460938 19.980469 10.664062 20.183594 10.914062 20.183594 C 11.167969 20.183594 11.371094 19.980469 11.371094 19.726562 L 11.371094 2.445312 C 11.371094 2.195312 11.167969 1.992188 10.914062 1.992188 Z M 10.914062 1.992188 "/>
<path style=" stroke:none;fill-rule:nonzero;fill:rgb(25.882354%,25.882354%,25.882354%);fill-opacity:1;" d="M 20.011719 8.359375 C 20.011719 9.367188 19.199219 10.175781 18.191406 10.175781 L 15.464844 10.175781 C 14.457031 10.175781 13.644531 9.367188 13.644531 8.359375 L 13.644531 5.628906 C 13.644531 4.621094 14.457031 3.808594 15.464844 3.808594 L 18.191406 3.808594 C 19.199219 3.808594 20.011719 4.621094 20.011719 5.628906 Z M 18.191406 7.902344 L 18.191406 6.085938 C 18.191406 5.832031 17.988281 5.628906 17.738281 5.628906 L 15.917969 5.628906 C 15.664062 5.628906 15.464844 5.832031 15.464844 6.085938 L 15.464844 7.902344 C 15.464844 8.15625 15.664062 8.359375 15.917969 8.359375 L 17.738281 8.359375 C 17.988281 8.359375 18.191406 8.15625 18.191406 7.902344 Z M 18.191406 7.902344 "/>
<path style=" stroke:none;fill-rule:nonzero;fill:rgb(25.882354%,25.882354%,25.882354%);fill-opacity:1;" d="M 20.011719 16.542969 C 20.011719 17.550781 19.199219 18.363281 18.191406 18.363281 L 14.554688 18.363281 C 13.546875 18.363281 12.734375 17.550781 12.734375 16.542969 L 12.734375 13.816406 C 12.734375 12.808594 13.546875 11.996094 14.554688 11.996094 L 18.191406 11.996094 C 19.199219 11.996094 20.011719 12.808594 20.011719 13.816406 Z M 18.191406 16.089844 L 18.191406 14.269531 C 18.191406 14.019531 17.988281 13.816406 17.738281 13.816406 L 15.007812 13.816406 C 14.757812 13.816406 14.554688 14.019531 14.554688 14.269531 L 14.554688 16.089844 C 14.554688 16.339844 14.757812 16.542969 15.007812 16.542969 L 17.738281 16.542969 C 17.988281 16.542969 18.191406 16.339844 18.191406 16.089844 Z M 18.191406 16.089844 "/>
<path style=" stroke:none;fill-rule:nonzero;fill:rgb(25.882354%,25.882354%,25.882354%);fill-opacity:1;" d="M 7.277344 3.808594 C 8.285156 3.808594 9.097656 4.621094 9.097656 5.628906 L 9.097656 9.269531 C 9.097656 10.277344 8.285156 11.085938 7.277344 11.085938 L 4.546875 11.085938 C 3.539062 11.085938 2.730469 10.277344 2.730469 9.269531 L 2.730469 5.628906 C 2.730469 4.621094 3.539062 3.808594 4.546875 3.808594 Z M 7.277344 3.808594 "/>
</g>
</svg>
